X:1
T:Title
%%score 1 { 2 | 3 }
L:1/8
Q:1/4=90
M:3/4
K:Bb
V:1 treble nm="Grand Piano, Soprano"
V:2 bass nm="Choir Pad, Lee, C. A. White, 1898"
V:3 bass 
V:1
 [DB][Ec] [Fd]3 [DF] | [EG][CEA] [DB]4 | [CA][DB] [Ec]3 [EA] | [EG][EF] [DB]4 | %4
w: By~C.~A.~White,~1898 * * *||||
 [DB][EB] [FB]3 [FB] | [GB][FB] [EG]4 | [EA][EG] [DF]3 [DF] | [CF][EF] [DF]4 | DE F3 F | EF G4 | %10
w: ||||||
 CD E3 E | DC D4 | [DF][DF] [Fd]3 [Fd] | [Ec][Fd] [Ge]4 | [Fd][Fe] [Ff]3 [Fd] | [Fc]>[FB] [FB]4- | %16
w: ||||||
 [FB]4 z2 |] %17
w: |
V:2
 B,A, B,3 B, | F,F, F,4 | F,F, A,3 C | B,A, B,4 | B,B, B,3 B, | B,B, B,4 | B,B, B,3 B, | A,C B,4 | %8
 B,[K:treble]C D3 D | CD E4 | A,B, C3 C | B,A, B,4 | B,B, B,3 B, | A,B, B,4 | B,[K:treble]C D3 F | %15
 E>D D4- | D4 z2 |] %17
V:3
 D,C, B,,3 B,, | F,,F,, B,,4 | F,,B,, F,,3 F,, | F,,F,, [B,,F,]4 | B,,C, D,3 D, | E,D, E,4 | %6
 E,E, F,3 F, | F,F, B,,4 | B,,F,, B,,3 B,, | B,,B,, E,4 | F,,B,, A,,3 F,, | B,,F,, B,,4 | %12
 B,,B,, B,,3 B,, | F,,B,, E,4 | B,,[F,,A,,] B,,3 B,, | [F,,A,,]>B,, B,,4- | B,,4 z2 |] %17

